apps/trade/public/tokens/usdb.svg

<svg width="140" height="140" viewBox="0 0 140 140" fill="none" xmlns="http://www.w3.org/2000/svg">
    <circle cx="70" cy="70" r="70" fill="#FCFC03"/>
    <path d="M51.8401 62.2522L53.7523 56.3555L44.0104 49.2314L38.4407 66.3255L48.1303 73.4439L48.1133 73.4968H91.7182L87.5189 86.4438H32.0639L28.3378 97.9335H83.7928L98.3017 90.715L105.433 68.7273L96.4594 62.1356L51.8401 62.2522Z"
          fill="black"/>
    <path d="M59.0675 37.9326L44.0104 49.2314L110.449 49.2528L114.119 37.9326H59.0675Z" fill="black"/>
    <path d="M60.2876 117.5L91.7677 19.6592H80.6073L49.4586 117.5H60.2876Z" fill="black"/>
</svg>

<svg width="140" height="140" fill="none" xmlns="http://www.w3.org/2000/svg">
    <circle cx="70" cy="70" r="70" fill="#FCFC03"/>
    <path d="m51.84 62.252 1.912-5.897-9.742-7.124-5.57 17.095 9.69 7.118-.017.053h43.605l-4.2 12.947H32.065l-3.726 11.49h55.455l14.509-7.219 7.131-21.988-8.974-6.591-44.619.116ZM59.068 37.933 44.01 49.23l66.439.022 3.67-11.32H59.068Z" fill="#000"/>
    <path d="m60.288 117.5 31.48-97.84h-11.16l-31.15 97.84h10.83Z" fill="#000"/>
</svg>
